svg/emoji_u1f68e.svg

<?xml version="1.0" encoding="UTF-8"?>
<svg width="128" height="128" enable-background="new 0 0 128 128" xmlns="http://www.w3.org/2000/svg" xmlns:xlink="http://www.w3.org/1999/xlink"><path d="M122.06,19H5.94C4.87,19,4,18.06,4,17s0.87-2,1.94-2h116.13c1.07,0,1.94,0.94,1.94,2 S123.13,19,122.06,19z" fill="#263238"/><g opacity=".2"><path d="m122.03 16c0.5 0 0.95 0.47 0.95 1s-0.42 1-0.92 1h-116.12c-0.5 0-0.94-0.47-0.94-1s0.44-1 0.94-1h116.06m0.06-1h-116.12c-1.07 0-1.94 0.94-1.94 2s0.87 2 1.94 2h116.13c1.07 0 1.94-0.94 1.94-2s-0.88-2-1.95-2z" fill="#eee"/></g><path d="M108,16H91.96c-0.26,0-0.51,0.07-0.73,0.19l-26,27.46c-0.18,0.1-0.34,0.35-0.46,0.35H54 c-1.1,0-2,0.98-2,2.08v0.83c0,1.1,0.9,2.08,2,2.08h23.92c1.1,0,2.08-0.98,2.08-2.08v-0.83c0-1.1-0.98-2.08-2.08-2.08h-7.24 l22.94-25H108c0.83,0,1.5-0.67,1.5-1.5S108.83,16,108,16z" fill="#424242"/><g opacity=".2"><path d="m108 17c0.28 0 0.5 0.22 0.5 0.5s-0.22 0.5-0.5 0.5h-14.82l-0.3 0.32-22.94 25-1.53 1.68h9.52c0.56 0 1.08 0.53 1.08 1.08v0.83c0 0.56-0.53 1.08-1.08 1.08h-23.93c-0.53 0-1-0.51-1-1.08v-0.83c0-0.58 0.47-1.08 1-1.08h10.77c0.48 0 0.77-0.29 0.93-0.45l0.05-0.05 0.1-0.05 0.11-0.11 25.87-27.32c0.05-0.01 0.09-0.02 0.14-0.02h16.03m0-1h-16.04c-0.26 0-0.51 0.07-0.73 0.19l-26 27.46c-0.18 0.1-0.34 0.35-0.46 0.35h-10.77c-1.1 0-2 0.98-2 2.08v0.83c0 1.1 0.9 2.08 2 2.08h23.92c1.1 0 2.08-0.98 2.08-2.08v-0.83c0-1.1-0.98-2.08-2.08-2.08h-7.24l22.94-25h14.38c0.83 0 1.5-0.67 1.5-1.5s-0.67-1.5-1.5-1.5z" fill="#eee"/></g><linearGradient id="c" x1="64" x2="64" y1="48.639" y2="103.75" gradientUnits="userSpaceOnUse"><stop stop-color="#FFF8E1" offset=".0068083"/><stop stop-color="#FFF7DC" offset=".1844"/><stop stop-color="#FFF3CC" offset=".4054"/><stop stop-color="#FFECB3" offset=".6496"/><stop stop-color="#FFE490" offset=".9087"/><stop stop-color="#FFE082" offset=".9981"/></linearGradient><path d="m118 115.75h-108c-3.3 0-6-2.7-6-6v-55.75c0-3.3 2.7-6 6-6h108c3.3 0 6 2.7 6 6v55.75c0 3.3-2.7 6-6 6z" fill="url(#c)"/><path d="m29.95 81.92h-13.92c-1.66 0-3-1.34-3-3v-20.05c0-1.66 1.34-3 3-3h13.92c1.66 0 3 1.34 3 3v20.05c0 1.66-1.34 3-3 3z" fill="#4FC3F7"/><path d="m49.87 75.67h-9.84c-1.66 0-3-1.34-3-3v-13.8c0-1.66 1.34-3 3-3h9.84c1.66 0 3 1.34 3 3v13.8c0 1.66-1.34 3-3 3z" fill="#4FC3F7"/><path d="m69.82 75.67h-9.84c-1.66 0-3-1.34-3-3v-13.8c0-1.66 1.34-3 3-3h9.84c1.66 0 3 1.34 3 3v13.8c0 1.66-1.34 3-3 3z" fill="#4FC3F7"/><path d="m89.96 75.67h-9.84c-1.66 0-3-1.34-3-3v-13.8c0-1.66 1.34-3 3-3h9.84c1.66 0 3 1.34 3 3v13.8c0 1.66-1.34 3-3 3z" fill="#4FC3F7"/><path d="m109.92 75.67h-9.84c-1.66 0-3-1.34-3-3v-13.8c0-1.66 1.34-3 3-3h9.84c1.66 0 3 1.34 3 3v13.8c0 1.66-1.34 3-3 3z" fill="#4FC3F7"/><defs><path id="b" d="m118 115.75h-108c-3.3 0-6-2.7-6-6v-55.75c0-3.3 2.7-6 6-6h108c3.3 0 6 2.7 6 6v55.75c0 3.3-2.7 6-6 6z"/></defs><clipPath id="a"><use xlink:href="#b"/></clipPath><rect x="3.88" y="89.1" width="120.12" height="29.05" clip-path="url(#a)" fill="#66BB6A"/><path d="m4.87 90.75c-0.3 0-0.59 0.04-0.87 0.1v10.3c0.28 0.06 0.57 0.1 0.87 0.1 2.18 0 3.96-1.78 3.96-3.96v-2.58c0-2.18-1.78-3.96-3.96-3.96z" fill="#FFEB3B"/><g opacity=".2"><path d="m118 50.87c1.73 0 3.13 1.4 3.13 3.13v55.75c0 1.73-1.4 3.13-3.13 3.13h-108c-1.73 0-3.13-1.4-3.13-3.13v-55.75c0-1.73 1.4-3.13 3.13-3.13h108m0-2.87h-108c-3.3 0-6 2.7-6 6v55.75c0 3.3 2.7 6 6 6h108c3.3 0 6-2.7 6-6v-55.75c0-3.3-2.7-6-6-6z" fill="#424242"/></g><g opacity=".2"><path d="m29.95 57.87c0.55 0 1 0.45 1 1v20.05c0 0.55-0.45 1-1 1h-13.92c-0.55 0-1-0.45-1-1v-20.05c0-0.55 0.45-1 1-1h13.92m0-2h-13.92c-1.66 0-3 1.34-3 3v20.05c0 1.66 1.34 3 3 3h13.92c1.66 0 3-1.34 3-3v-20.05c0-1.65-1.34-3-3-3z" fill="#424242"/></g><g opacity=".2"><path d="m50.36 57.87c0.28 0 0.51 0.23 0.51 0.51v14.77c0 0.28-0.23 0.51-0.51 0.51h-10.81c-0.28 0-0.51-0.23-0.51-0.51v-14.76c0-0.28 0.23-0.51 0.51-0.51h10.81m0-2.01h-10.81c-1.39 0-2.51 1.13-2.51 2.51v14.77c0 1.39 1.13 2.51 2.51 2.51h10.81c1.39 0 2.51-1.13 2.51-2.51v-14.76c0-1.39-1.12-2.52-2.51-2.52z" fill="#424242"/></g><g opacity=".2"><path d="m69.82 57.87c0.55 0 1 0.45 1 1v13.8c0 0.55-0.45 1-1 1h-9.84c-0.55 0-1-0.45-1-1v-13.8c0-0.55 0.45-1 1-1h9.84m0-2h-9.84c-1.66 0-3 1.34-3 3v13.8c0 1.66 1.34 3 3 3h9.84c1.66 0 3-1.34 3-3v-13.8c0-1.65-1.34-3-3-3z" fill="#424242"/></g><g opacity=".2"><path d="m89.96 57.87c0.55 0 1 0.45 1 1v13.8c0 0.55-0.45 1-1 1h-9.84c-0.55 0-1-0.45-1-1v-13.8c0-0.55 0.45-1 1-1h9.84m0-2h-9.84c-1.66 0-3 1.34-3 3v13.8c0 1.66 1.34 3 3 3h9.84c1.66 0 3-1.34 3-3v-13.8c0-1.65-1.34-3-3-3z" fill="#424242"/></g><g opacity=".2"><path d="m109.92 57.87c0.55 0 1 0.45 1 1v13.8c0 0.55-0.45 1-1 1h-9.84c-0.55 0-1-0.45-1-1v-13.8c0-0.55 0.45-1 1-1h9.84m0-2h-9.84c-1.66 0-3 1.34-3 3v13.8c0 1.66 1.34 3 3 3h9.84c1.66 0 3-1.34 3-3v-13.8c0-1.65-1.34-3-3-3z" fill="#424242"/></g><circle cx="27" cy="112" r="12" fill="#4E342E"/><g opacity=".2"><path d="m27 102c5.51 0 10 4.49 10 10s-4.49 10-10 10-10-4.49-10-10 4.49-10 10-10m0-2c-6.63 0-12 5.37-12 12s5.37 12 12 12 12-5.37 12-12-5.37-12-12-12z" fill="#eee"/></g><circle cx="27" cy="112" r="5.14" fill="#BDBDBD"/><circle cx="101" cy="112" r="12" fill="#4E342E"/><g opacity=".2"><path d="m101 102c5.51 0 10 4.49 10 10s-4.49 10-10 10-10-4.49-10-10 4.49-10 10-10m0-2c-6.63 0-12 5.37-12 12s5.37 12 12 12 12-5.37 12-12-5.37-12-12-12z" fill="#eee"/></g><circle cx="101" cy="112" r="5.14" fill="#BDBDBD"/></svg>

<svg width="128" height="128" style="enable-background:new 0 0 128 128;" xmlns="http://www.w3.org/2000/svg" xmlns:xlink="http://www.w3.org/1999/xlink">
  <g>
    <path d="M122.06,19H5.94C4.87,19,4,18.06,4,17s0.87-2,1.94-2h116.13c1.07,0,1.94,0.94,1.94,2 S123.13,19,122.06,19z" style="fill:#263238;"/>
    <g style="opacity:0.2;">
      <path d="M122.03,16c0.5,0,0.95,0.47,0.95,1s-0.42,1-0.92,1H5.94C5.44,18,5,17.53,5,17s0.44-1,0.94-1H122 M122.06,15H5.94C4.87,15,4,15.94,4,17s0.87,2,1.94,2h116.13c1.07,0,1.94-0.94,1.94-2S123.13,15,122.06,15L122.06,15z" style="fill:#EEEEEE;"/>
    </g>
  </g>
  <g>
    <path d="M108,16H91.96c-0.26,0-0.51,0.07-0.73,0.19l-26,27.46c-0.18,0.1-0.34,0.35-0.46,0.35H54 c-1.1,0-2,0.98-2,2.08v0.83c0,1.1,0.9,2.08,2,2.08h23.92c1.1,0,2.08-0.98,2.08-2.08v-0.83c0-1.1-0.98-2.08-2.08-2.08h-7.24 l22.94-25H108c0.83,0,1.5-0.67,1.5-1.5S108.83,16,108,16z" style="fill:#424242;"/>
    <g style="opacity:0.2;">
      <path d="M108,17c0.28,0,0.5,0.22,0.5,0.5S108.28,18,108,18H93.62h-0.44l-0.3,0.32l-22.94,25L68.41,45h2.28 h7.24c0.56,0,1.08,0.53,1.08,1.08v0.83c0,0.56-0.53,1.08-1.08,1.08H54c-0.53,0-1-0.51-1-1.08v-0.83c0-0.58,0.47-1.08,1-1.08h10.77 c0.48,0,0.77-0.29,0.93-0.45c0.02-0.02,0.03-0.03,0.05-0.05l0.1-0.05l0.11-0.11l25.87-27.32c0.05-0.01,0.09-0.02,0.14-0.02H108 M108,16H91.96c-0.26,0-0.51,0.07-0.73,0.19l-26,27.46c-0.18,0.1-0.34,0.35-0.46,0.35H54c-1.1,0-2,0.98-2,2.08v0.83 c0,1.1,0.9,2.08,2,2.08h23.92c1.1,0,2.08-0.98,2.08-2.08v-0.83c0-1.1-0.98-2.08-2.08-2.08h-7.24l22.94-25H108 c0.83,0,1.5-0.67,1.5-1.5S108.83,16,108,16L108,16z" style="fill:#EEEEEE;"/>
    </g>
  </g>
  <linearGradient id="SVGID_1_" gradientUnits="userSpaceOnUse" x1="64" x2="64" y1="48.6392" y2="103.7523">
    <stop offset="6.808272e-03" style="stop-color:#FFF8E1"/>
    <stop offset="0.1844" style="stop-color:#FFF7DC"/>
    <stop offset="0.4054" style="stop-color:#FFF3CC"/>
    <stop offset="0.6496" style="stop-color:#FFECB3"/>
    <stop offset="0.9087" style="stop-color:#FFE490"/>
    <stop offset="0.9981" style="stop-color:#FFE082"/>
  </linearGradient>
  <path d="M118,115.75H10c-3.3,0-6-2.7-6-6V54c0-3.3,2.7-6,6-6h108c3.3,0,6,2.7,6,6v55.75 C124,113.05,121.3,115.75,118,115.75z" style="fill:url(#SVGID_1_);"/>
  <path d="M29.95,81.92H16.03c-1.66,0-3-1.34-3-3V58.87c0-1.66,1.34-3,3-3h13.92c1.66,0,3,1.34,3,3v20.05 C32.95,80.58,31.61,81.92,29.95,81.92z" style="fill:#4FC3F7;"/>
  <path d="M49.87,75.67h-9.84c-1.66,0-3-1.34-3-3v-13.8c0-1.66,1.34-3,3-3h9.84c1.66,0,3,1.34,3,3v13.8 C52.87,74.33,51.53,75.67,49.87,75.67z" style="fill:#4FC3F7;"/>
  <path d="M69.82,75.67h-9.84c-1.66,0-3-1.34-3-3v-13.8c0-1.66,1.34-3,3-3h9.84c1.66,0,3,1.34,3,3v13.8 C72.82,74.33,71.48,75.67,69.82,75.67z" style="fill:#4FC3F7;"/>
  <path d="M89.96,75.67h-9.84c-1.66,0-3-1.34-3-3v-13.8c0-1.66,1.34-3,3-3h9.84c1.66,0,3,1.34,3,3v13.8 C92.96,74.33,91.62,75.67,89.96,75.67z" style="fill:#4FC3F7;"/>
  <path d="M109.92,75.67h-9.84c-1.66,0-3-1.34-3-3v-13.8c0-1.66,1.34-3,3-3h9.84c1.66,0,3,1.34,3,3v13.8 C112.92,74.33,111.58,75.67,109.92,75.67z" style="fill:#4FC3F7;"/>
  <g>
    <defs>
      <path id="SVGID_2_" d="M118,115.75H10c-3.3,0-6-2.7-6-6V54c0-3.3,2.7-6,6-6h108c3.3,0,6,2.7,6,6v55.75 C124,113.05,121.3,115.75,118,115.75z"/>
    </defs>
    <clipPath id="SVGID_3_">
      <use style="overflow:visible;" xlink:href="#SVGID_2_"/>
    </clipPath>
    <rect height="29.05" style="clip-path:url(#SVGID_3_);fill:#66BB6A;" width="120.12" x="3.88" y="89.1"/>
  </g>
  <path d="M4.87,90.75c-0.3,0-0.59,0.04-0.87,0.1v10.3c0.28,0.06,0.57,0.1,0.87,0.1 c2.18,0,3.96-1.78,3.96-3.96v-2.58C8.83,92.53,7.05,90.75,4.87,90.75z" style="fill:#FFEB3B;"/>
  <g style="opacity:0.2;">
    <path d="M118,50.87c1.73,0,3.13,1.4,3.13,3.13v55.75c0,1.73-1.4,3.13-3.13,3.13H10 c-1.73,0-3.13-1.4-3.13-3.13V54c0-1.73,1.4-3.13,3.13-3.13H118 M118,48H10c-3.3,0-6,2.7-6,6v55.75c0,3.3,2.7,6,6,6h108 c3.3,0,6-2.7,6-6V54C124,50.7,121.3,48,118,48L118,48z" style="fill:#424242;"/>
  </g>
  <g style="opacity:0.2;">
    <path d="M29.95,57.87c0.55,0,1,0.45,1,1v20.05c0,0.55-0.45,1-1,1H16.03c-0.55,0-1-0.45-1-1V58.87 c0-0.55,0.45-1,1-1H29.95 M29.95,55.87H16.03c-1.66,0-3,1.34-3,3v20.05c0,1.66,1.34,3,3,3h13.92c1.66,0,3-1.34,3-3V58.87 C32.95,57.22,31.61,55.87,29.95,55.87L29.95,55.87z" style="fill:#424242;"/>
  </g>
  <g style="opacity:0.2;">
    <path d="M50.36,57.87c0.28,0,0.51,0.23,0.51,0.51v14.77c0,0.28-0.23,0.51-0.51,0.51H39.55 c-0.28,0-0.51-0.23-0.51-0.51V58.39c0-0.28,0.23-0.51,0.51-0.51H50.36 M50.36,55.87H39.55c-1.39,0-2.51,1.13-2.51,2.51v14.77 c0,1.39,1.13,2.51,2.51,2.51h10.81c1.39,0,2.51-1.13,2.51-2.51V58.39C52.87,57,51.75,55.87,50.36,55.87L50.36,55.87z" style="fill:#424242;"/>
  </g>
  <g style="opacity:0.2;">
    <path d="M69.82,57.87c0.55,0,1,0.45,1,1v13.8c0,0.55-0.45,1-1,1h-9.84c-0.55,0-1-0.45-1-1v-13.8 c0-0.55,0.45-1,1-1H69.82 M69.82,55.87h-9.84c-1.66,0-3,1.34-3,3v13.8c0,1.66,1.34,3,3,3h9.84c1.66,0,3-1.34,3-3v-13.8 C72.82,57.22,71.48,55.87,69.82,55.87L69.82,55.87z" style="fill:#424242;"/>
  </g>
  <g style="opacity:0.2;">
    <path d="M89.96,57.87c0.55,0,1,0.45,1,1v13.8c0,0.55-0.45,1-1,1h-9.84c-0.55,0-1-0.45-1-1v-13.8 c0-0.55,0.45-1,1-1H89.96 M89.96,55.87h-9.84c-1.66,0-3,1.34-3,3v13.8c0,1.66,1.34,3,3,3h9.84c1.66,0,3-1.34,3-3v-13.8 C92.96,57.22,91.62,55.87,89.96,55.87L89.96,55.87z" style="fill:#424242;"/>
  </g>
  <g style="opacity:0.2;">
    <path d="M109.92,57.87c0.55,0,1,0.45,1,1v13.8c0,0.55-0.45,1-1,1h-9.84c-0.55,0-1-0.45-1-1v-13.8 c0-0.55,0.45-1,1-1H109.92 M109.92,55.87h-9.84c-1.66,0-3,1.34-3,3v13.8c0,1.66,1.34,3,3,3h9.84c1.66,0,3-1.34,3-3v-13.8 C112.92,57.22,111.58,55.87,109.92,55.87L109.92,55.87z" style="fill:#424242;"/>
  </g>
  <g>
    <g>
      <circle cx="27" cy="112" r="12" style="fill:#4E342E;"/>
      <g style="opacity:0.2;">
        <path d="M27,102c5.51,0,10,4.49,10,10s-4.49,10-10,10s-10-4.49-10-10S21.49,102,27,102 M27,100 c-6.63,0-12,5.37-12,12c0,6.63,5.37,12,12,12c6.63,0,12-5.37,12-12C39,105.37,33.63,100,27,100L27,100z" style="fill:#EEEEEE;"/>
      </g>
    </g>
    <circle cx="27" cy="112" r="5.14" style="fill:#BDBDBD;"/>
  </g>
  <g>
    <g>
      <circle cx="101" cy="112" r="12" style="fill:#4E342E;"/>
      <g style="opacity:0.2;">
        <path d="M101,102c5.51,0,10,4.49,10,10s-4.49,10-10,10s-10-4.49-10-10S95.49,102,101,102 M101,100 c-6.63,0-12,5.37-12,12c0,6.63,5.37,12,12,12s12-5.37,12-12C113,105.37,107.63,100,101,100L101,100z" style="fill:#EEEEEE;"/>
      </g>
    </g>
    <circle cx="101" cy="112" r="5.14" style="fill:#BDBDBD;"/>
  </g>
</svg>
